novelwriter/assets/icons/typicons_dark/mixed_edit.svg

<?xml version="1.0" encoding="UTF-8" standalone="no"?>
<svg
   xmlns:dc="http://purl.org/dc/elements/1.1/"
   xmlns:cc="http://creativecommons.org/ns#"
   xmlns:rdf="http://www.w3.org/1999/02/22-rdf-syntax-ns#"
   xmlns:svg="http://www.w3.org/2000/svg"
   xmlns="http://www.w3.org/2000/svg"
   version="1.2"
   width="24"
   height="24"
   viewBox="0 0 24 24"
   id="svg7536">
  <metadata
     id="metadata7542">
    <rdf:RDF>
      <cc:Work
         rdf:about="">
        <dc:format>image/svg+xml</dc:format>
        <dc:type
           rdf:resource="http://purl.org/dc/dcmitype/StillImage" />
        <dc:title></dc:title>
      </cc:Work>
    </rdf:RDF>
  </metadata>
  <defs
     id="defs7540" />
  <path
     id="path7534"
     style="display:inline;fill:#aeaeae;fill-opacity:1;stroke-width:1.10527"
     d="M 19.160156 0 C 18.73463 0 18.312122 0.160533 17.988281 0.484375 L 14.052734 4.421875 L 4.1054688 4.421875 C 3.4953635 4.421875 3 4.9141801 3 5.5253906 L 3 17.037109 L 3 18.429688 L 3 22.894531 C 3 23.505741 3.4953635 24 4.1054688 24 L 18.474609 24 C 19.084713 24 19.578125 23.505741 19.578125 22.894531 L 19.578125 18.429688 L 19.578125 17.037109 L 19.578125 9.9472656 L 23.515625 6.0117188 C 23.839466 5.6878766 24 5.2623116 24 4.8378906 C 24 4.4134695 23.839466 3.9918109 23.515625 3.6679688 L 20.332031 0.484375 C 20.008189 0.160533 19.584576 0 19.160156 0 z M 19.160156 2.4394531 L 21.560547 4.8398438 L 20.130859 6.2695312 L 17.730469 3.8691406 L 19.160156 2.4394531 z M 16.949219 4.6503906 L 19.349609 7.0507812 L 12.394531 14.005859 L 9.9941406 11.605469 L 16.949219 4.6503906 z M 5.2109375 6.6308594 L 11.841797 6.6308594 L 8.328125 10.146484 C 8.0042828 10.470327 7.7997073 11.043101 7.6328125 11.570312 C 7.4559704 12.122943 7.421875 12.737735 7.421875 13.195312 L 7.421875 16.578125 L 10.804688 16.578125 C 11.262267 16.578125 12.02928 16.467813 12.541016 16.257812 C 13.053858 16.047812 13.530778 15.874623 13.853516 15.550781 L 17.369141 12.158203 L 17.369141 17.037109 L 17.369141 18.429688 L 17.369141 21.789062 L 5.2109375 21.789062 L 5.2109375 18.429688 L 5.2109375 17.037109 L 5.2109375 6.6308594 z M 9.5644531 12.525391 L 11.505859 14.435547 L 9.6308594 14.369141 L 9.5644531 12.525391 z " />
</svg>

<?xml version="1.0" encoding="UTF-8"?>
<svg width="24" height="24" version="1.2" viewBox="0 0 24 24" xmlns="http://www.w3.org/2000/svg">
 <path d="m19.16 0c-0.42553 0-0.84803 0.16053-1.1719 0.48438l-3.9355 3.9375h-9.9473c-0.61011 0-1.1055 0.49231-1.1055 1.1035v11.512 1.3926 4.4648c0 0.61121 0.49536 1.1055 1.1055 1.1055h14.369c0.6101 0 1.1035-0.49426 1.1035-1.1055v-4.4648-1.3926-7.0898l3.9375-3.9355c0.32384-0.32384 0.48438-0.74941 0.48438-1.1738 0-0.42442-0.16053-0.84608-0.48438-1.1699l-3.1836-3.1836c-0.32384-0.32384-0.74746-0.48438-1.1719-0.48438zm0 2.4395 2.4004 2.4004-1.4297 1.4297-2.4004-2.4004 1.4297-1.4297zm-2.2109 2.2109 2.4004 2.4004-6.9551 6.9551-2.4004-2.4004 6.9551-6.9551zm-11.738 1.9805h6.6309l-3.5137 3.5156c-0.32384 0.32384-0.52842 0.89662-0.69531 1.4238-0.17684 0.55263-0.21094 1.1674-0.21094 1.625v3.3828h3.3828c0.45758 0 1.2246-0.11031 1.7363-0.32031 0.51284-0.21 0.98976-0.38319 1.3125-0.70703l3.5156-3.3926v4.8789 1.3926 3.3594h-12.158v-3.3594-1.3926-10.406zm4.3535 5.8945 1.9414 1.9102-1.875-0.066406-0.066406-1.8438z" fill="#aeaeae" stroke-width="1.1053"/>
</svg>
